img/directbox-notif.svg

<svg width="40" height="40" viewBox="0 0 40 40" fill="none" xmlns="http://www.w3.org/2000/svg">
<g id="vuesax/bold/directbox-notif">
<g id="directbox-notif">
<path id="Vector" d="M31.15 19.2167C30.2 18.9667 29.0833 18.8334 27.75 18.8334C25.9 18.8334 25.2166 19.2834 24.2666 20C24.2166 20.0334 24.1666 20.0834 24.1166 20.1334L22.5333 21.8167C21.2166 23.2334 18.8 23.2334 17.4666 21.8167L15.8833 20.15C15.8333 20.0834 15.7833 20.0334 15.7333 20C14.7666 19.2834 14.0833 18.8334 12.25 18.8334C10.9166 18.8334 9.79997 18.95 8.84997 19.2167C4.8833 20.2834 4.8833 23.4334 4.8833 26.2V27.75C4.8833 31.9334 4.8833 36.6667 13.8 36.6667H26.2C32.1166 36.6667 35.1166 33.6667 35.1166 27.75V26.2C35.1166 23.4334 35.1166 20.2834 31.15 19.2167Z" fill="white"/>
<path id="Vector_2" d="M24.6501 3.33337H15.3501C7.9834 3.33337 7.9834 7.25004 7.9834 10.7V16.8667C8.05007 16.8334 8.1334 16.8167 8.20007 16.8C9.36673 16.4834 10.6834 16.3334 12.2501 16.3334C14.8167 16.3334 16.0334 17.0834 17.2334 18C17.4001 18.1167 17.5667 18.2667 17.7167 18.4334L19.2834 20.0834C19.4501 20.2667 19.7167 20.3667 20.0001 20.3667C20.2834 20.3667 20.5501 20.2667 20.7001 20.1L22.3001 18.4167C22.4334 18.2834 22.5834 18.1334 22.7501 18.0167C23.9834 17.0834 25.1834 16.3334 27.7501 16.3334C29.3167 16.3334 30.6334 16.4834 31.8001 16.8C31.8667 16.8167 31.9501 16.8334 32.0167 16.8667V10.7C32.0167 7.25004 32.0167 3.33337 24.6501 3.33337ZM22.5834 14.1667H17.4167C16.7834 14.1667 16.2501 13.6334 16.2501 13C16.2501 12.35 16.7834 11.8334 17.4167 11.8334H22.5834C23.2167 11.8334 23.7501 12.35 23.7501 13C23.7501 13.6334 23.2167 14.1667 22.5834 14.1667ZM23.8834 9.51671H16.1167C15.4834 9.51671 14.9667 8.98337 14.9667 8.35004C14.9667 7.70004 15.4834 7.18337 16.1167 7.18337H23.8834C24.5167 7.18337 25.0334 7.70004 25.0334 8.35004C25.0334 8.98337 24.5167 9.51671 23.8834 9.51671Z" fill="white"/>
</g>
</g>
</svg>

<svg xmlns="http://www.w3.org/2000/svg" width="40" height="40" fill="none"><g fill="#fff"><path d="M31.15 19.217c-.95-.25-2.067-.384-3.4-.384-1.85 0-2.533.45-3.483 1.167-.05.033-.1.083-.15.133l-1.584 1.684c-1.316 1.416-3.733 1.416-5.066 0l-1.584-1.667a.6.6 0 0 0-.15-.15c-.966-.717-1.65-1.167-3.483-1.167-1.333 0-2.45.117-3.4.384-3.967 1.066-3.967 4.216-3.967 6.983v1.55c0 4.183 0 8.917 8.917 8.917h12.4c5.917 0 8.917-3 8.917-8.917V26.2c0-2.767 0-5.917-3.967-6.983"/><path d="M24.65 3.333h-9.3c-7.367 0-7.367 3.917-7.367 7.367v6.167c.067-.034.15-.05.217-.067 1.167-.317 2.483-.467 4.05-.467 2.567 0 3.783.75 4.983 1.667.167.117.334.267.484.433l1.566 1.65c.167.184.434.284.717.284s.55-.1.7-.267l1.6-1.683c.133-.134.283-.284.45-.4 1.233-.934 2.433-1.684 5-1.684 1.567 0 2.883.15 4.05.467.067.017.15.033.217.067V10.7c0-3.45 0-7.367-7.367-7.367m-2.067 10.834h-5.166A1.18 1.18 0 0 1 16.25 13c0-.65.533-1.167 1.167-1.167h5.166A1.17 1.17 0 0 1 23.75 13c0 .633-.533 1.167-1.167 1.167m1.3-4.65h-7.766c-.634 0-1.15-.534-1.15-1.167 0-.65.516-1.167 1.15-1.167h7.766c.634 0 1.15.517 1.15 1.167 0 .633-.516 1.167-1.15 1.167"/></g></svg>
